app/dist/common/images/shenzhen-sed-indus.svg

<svg height="18" viewBox="0 0 18 18" width="18" xmlns="http://www.w3.org/2000/svg"><path d="m0 0h18v18h-18z" fill="#f0f3fa"/><path d="m14.1 10.5h-5.1l-.5.5h-4.4c.82 1.77 2.7 3 4.9 3 2.4 0 4.42-1.47 5.1-3.5zm-.81-4.5h-4.29l-1 1h-3.9c.81-1.77 2.7-3 4.9-3 1.75 0 3.3.79 4.28 2zm-5.29 2h-6l1.5 2h4.5v-.5h-3.35l-.36-.25h3.71v-.5h-4.06l-.34-.25h4.4zm1 0h7l-2 2h-5zm1.4.5v1h2.63l.87-1z" fill="#014ea2"/></svg>

<!-- by TradingView --><svg width="18" height="18" viewBox="0 0 18 18" xmlns="http://www.w3.org/2000/svg"><path fill="#F0F3FA" d="M0 0h18v18H0z"/><path d="M14.1 10.5H9l-.5.5H4.1c.82 1.77 2.7 3 4.9 3 2.4 0 4.42-1.47 5.1-3.5ZM13.29 6H9L8 7H4.1C4.91 5.23 6.8 4 9 4c1.75 0 3.3.79 4.28 2ZM8 8H2l1.5 2H8v-.5H4.65l-.36-.25H8v-.5H3.94L3.6 8.5H8V8ZM9 8h7l-2 2H9V8Zm1.4.5v1h2.63l.87-1h-3.5Z" fill="#014EA2"/></svg>
